icon/fa/star-half.svg

<svg xmlns="http://www.w3.org/2000/svg" viewBox="0 0 576 512"><!--! Font Awesome Free 6.1.2 by @fontawesome - https://fontawesome.com License - https://fontawesome.com/license/free (Icons: CC BY 4.0, Fonts: SIL OFL 1.1, Code: MIT License) Copyright 2022 Fonticons, Inc.--><path d="m288 439.8-128.2 68.5c-10.8 5.7-23.9 4.8-33.8-2.3-9.9-7.1-14.9-19.3-12.8-31.3l24.6-146.6L33.58 225.9c-8.61-8.6-11.67-21.2-7.89-32.8 3.77-11.5 13.74-19.9 25.73-21.6L195 150.3l64.4-132.33C264.7 6.995 275.8.013 287.1-.04l.9 439.84zM433.2 512c-1.1.1-2.2.1-3.3 0h3.3z"/></svg>

<svg xmlns="http://www.w3.org/2000/svg" viewBox="0 0 576 512" height="1em" width="1em">
<!--! Font Awesome Free 6.1.2 by @fontawesome - https://fontawesome.com License - https://fontawesome.com/license/free (Icons: CC BY 4.0, Fonts: SIL OFL 1.1, Code: MIT License) Copyright 2022 Fonticons, Inc.-->
  <path d="M288 439.8L159.8 508.3C149 514 135.9 513.1 126 506C116.1 498.9 111.1 486.7 113.2 474.7L137.8 328.1L33.58 225.9C24.97 217.3 21.91 204.7 25.69 193.1C29.46 181.6 39.43 173.2 51.42 171.5L195 150.3L259.4 17.97C264.7 6.995 275.8 .0131 287.1-.0391L288 439.8zM433.2 512C432.1 512.1 431 512.1 429.9 512H433.2z"/>
</svg>
